src/Assets/icon/icon_defi_green.svg

<svg fill="none" height="60" viewBox="0 0 60 60" width="60" xmlns="http://www.w3.org/2000/svg"><rect fill="#085276" height="60" rx="30" width="60"/><path d="m40.2105 26.1053v-3.7895c0-1.3933-1.133-2.5263-2.5263-2.5263h-3.7895c0-2.0893-1.7002-3.7895-3.7894-3.7895-2.0893 0-3.7895 1.7002-3.7895 3.7895h-3.7895c-1.3932 0-2.5263 1.133-2.5263 2.5263v4.9023l.8324.3019c1.0131.3663 1.6939 1.3213 1.6939 2.3747 0 1.0535-.6808 2.0085-1.6939 2.3748l-.8324.3019v4.9023c0 1.3932 1.1331 2.5263 2.5263 2.5263h4.9023l.3019-.8324c.3663-1.0131 1.3213-1.6939 2.3748-1.6939 1.0534 0 2.0084.6808 2.3747 1.6939l.3019.8324h4.9023c1.3933 0 2.5263-1.1331 2.5263-2.5263v-3.7895c2.0893 0 3.7895-1.7002 3.7895-3.7895 0-2.0892-1.7002-3.7894-3.7895-3.7894zm0 5.0526h-2.5263l-.0038 6.3158h-3.2147c-.8981-1.5411-2.5541-2.5263-4.3604-2.5263-1.8064 0-3.4624.9852-4.3605 2.5263h-3.2185v-3.2185c1.5411-.8981 2.5263-2.5541 2.5263-4.3605 0-1.8063-.9852-3.4623-2.5263-4.3604v-3.2185h6.3158v-2.5263c0-.335.1331-.6563.37-.8932s.5582-.37.8932-.37.6563.1331.8932.37c.2368.2369.3699.5582.3699.8932v2.5263h6.3158v6.3158h2.5263c.335 0 .6563.1331.8932.3699.2369.2369.37.5582.37.8932s-.1331.6563-.37.8932-.5582.37-.8932.37z" fill="#fff"/></svg>

<svg width="60" height="60" viewBox="0 0 60 60" fill="none" xmlns="http://www.w3.org/2000/svg">
<rect width="60" height="60" rx="30" fill="#085276"/>
<path d="M40.2105 26.1053V22.3158C40.2105 20.9225 39.0775 19.7895 37.6842 19.7895H33.8947C33.8947 17.7002 32.1945 16 30.1053 16C28.016 16 26.3158 17.7002 26.3158 19.7895H22.5263C21.1331 19.7895 20 20.9225 20 22.3158V27.2181L20.8324 27.52C21.8455 27.8863 22.5263 28.8413 22.5263 29.8947C22.5263 30.9482 21.8455 31.9032 20.8324 32.2695L20 32.5714V37.4737C20 38.8669 21.1331 40 22.5263 40H27.4286L27.7305 39.1676C28.0968 38.1545 29.0518 37.4737 30.1053 37.4737C31.1587 37.4737 32.1137 38.1545 32.48 39.1676L32.7819 40H37.6842C39.0775 40 40.2105 38.8669 40.2105 37.4737V33.6842C42.2998 33.6842 44 31.984 44 29.8947C44 27.8055 42.2998 26.1053 40.2105 26.1053ZM40.2105 31.1579H37.6842L37.6804 37.4737H34.4657C33.5676 35.9326 31.9116 34.9474 30.1053 34.9474C28.2989 34.9474 26.6429 35.9326 25.7448 37.4737H22.5263V34.2552C24.0674 33.3571 25.0526 31.7011 25.0526 29.8947C25.0526 28.0884 24.0674 26.4324 22.5263 25.5343V22.3158H28.8421V19.7895C28.8421 19.4545 28.9752 19.1332 29.2121 18.8963C29.449 18.6594 29.7703 18.5263 30.1053 18.5263C30.4403 18.5263 30.7616 18.6594 30.9985 18.8963C31.2353 19.1332 31.3684 19.4545 31.3684 19.7895V22.3158H37.6842V28.6316H40.2105C40.5455 28.6316 40.8668 28.7647 41.1037 29.0015C41.3406 29.2384 41.4737 29.5597 41.4737 29.8947C41.4737 30.2297 41.3406 30.551 41.1037 30.7879C40.8668 31.0248 40.5455 31.1579 40.2105 31.1579Z" fill="white"/>
</svg>
